X:1
T:Jesus Bids Us Shine
T:Edwin Othello Excell
T:Jesus Bids Us Shine
T:Public Domain
T:Public Domain
C:Edwin Othello Excell
Z:Public Domain
%%score 1 2
L:1/8
M:8/4
K:G
V:1 treble 
V:2 bass 
V:1
 [B,G]2 [B,D]2 [B,D]2 [B,D]2 [B,D]4 [B,G]2 [CA]2 | [B,G]4 [CF]4 [CF]8 | %2
w: Je- sus bids us shine With a|pure, clear light,|
w: Je- sus bids us shine, First of|all for Him;|
w: Je- sus bids us shine, Then, for|all a- round;|
 [CA]2 [CD]2 [CD]2 [CD]2 [CD]4 [CA]4 | [CA]2 [B,G]2 [B,G]2 [CA]2 [DB]8 | %4
w: Like a lit- tle can- dle|Burn- ing in the night.|
w: Well He sees and knows it,|If our light grows dim.|
w: Ma- ny kinds of dark- ness|In the world are found—|
 [DB]2 [Ec]2 [DB]2 [CA]2 [B,G]4 [G,B,]4 | ([CE]2 [EG]2) [DF]2 [CE]2 [B,D]8 | %6
w: In this world of dark- ness|So * let us shine—|
w: He looks down from Heav- en|To * see us shine—|
w: Sin and want and sor- row;|So * we must shine—|
 [B,D]2 [B,D]2 [B,G]2 [CA]2 [DB]2 [=Fd]4 [Ec]2 | [DB]4 [CA]4 [B,G]8 |] %8
w: You in your small cor- ner, And|I in mine.|
w: You in your small cor- ner, And|I in mine.|
w: You in your small cor- ner, And|I in mine.|
V:2
 [G,,G,]2 [G,,G,]2 [G,,G,]2 [G,,G,]2 [G,,G,]4 [G,,G,]2 [G,,G,]2 | [D,G,]4 [D,A,]4 [D,A,]8 | %2
 [D,F,]2 [D,F,]2 [D,F,]2 [D,F,]2 [D,F,]4 [D,F,]4 | [G,,G,]2 [G,,G,]2 [G,,G,]2 [G,,G,]2 [G,,G,]8 | %4
 [G,,G,]2 [G,,G,]2 [G,,G,]2 [G,,G,]2 [G,,G,]4 [G,,G,]4 | [C,G,]4 [C,G,]2 [C,G,]2 [G,,G,]8 | %6
 [G,,G,]2 [G,,G,]2 [G,,G,]2 [G,,G,]2 [G,,G,]2 [B,,G,]4 [C,G,]2 | [D,G,]4 [D,F,]4 [G,,G,]8 |] %8

